X:12921
%16177
T:Swedish
Z:id:dc-jig-123
M:6/8
L:1/8
K:Cmaj
cBA|GAG GFE|DCB, C3|Gcd e3|dcB c3|!
Gcd e3|dcB c2G|AGF EDC|!
M:9/8
